X:1
T:ウィアートル
T:ウィアートル
%%score { ( 1 4 ) | ( 2 3 ) }
L:1/8
Q:1/4=65
M:4/4
K:D
V:1 treble+8 nm="ピアノ" snm="Pno."
V:4 treble+8 
V:2 treble 
V:3 treble 
V:1
 dA a2 [EAc]4 | cdea [eac']2 [dgb]2- | [dgb]3 a/b/ a2 [df]2- | [df]3 c'/b/ [da]d e2 | AfAc d3 c | %5
 d4 [dg]f/e/ d2- | d8 |[K:treble] d2 a2 a3 g/f/ | ed d6 | d2 a2 a3 d' | c'b/a/- a4 z g | %11
 ef a>e e4 | cd a>d d3 A | Bcdg f3 e/d/ | c>d d4- dd | c>B A6 | z8 || f2 g2 a2 e'2 | %18
 d'3 d' c'b a>g | f3 e/d/ d3 e/d/ | d3 c/d/ a4 | f2 g2 a2 e'2 | f'3 g' f'e'd'c' | c'>d' d'4- d'a | %24
 gf/e/ d4- da | gf/e/ d4 c>d | d8 | z8 | z8 | %29
 z8[Q:1/4=120]"^rit."[Q:1/4=60][Q:1/4=120]"^rit."[Q:1/4=120]"^rit."[Q:1/4=55] | z8 |] %31
V:2
 [Dde]A A2 !arpeggio![Aea]4 | [FBa]FAc !arpeggio![Gde]2 [DAd]2- | %2
 [DAd]4 !arpeggio![FAde]2 !arpeggio![GAde]2 | d2 A2 !arpeggio![Ade]2 !arpeggio![ABcf]2 | %4
 A2 d2 [Aef]2 [Aa]2 | [Gea]4 [Bfa][Fc] [Gdea]2- | [Gdea]8 | [EFAd]2 [Ade]6 | [EFAd]2 [Adea]6 | %9
 [EFAd]2 [Ade]6 | [FBce]2 [ABc]6 | !arpeggio![EABd]4 [Ae]fae | [CFAc]4 [DGAd]4 | [EGBd]2 [Ba]6 | %14
 [cg]8 | [Ace]>B A2 e2 a2- | a8 || [FBd]2 [GAce]2 [FAd]2 [EFAc]2 | [GAd]DEd [FAd]4 | %19
 [EFAd]4 [DGAe]2 [Gg]2 | [FAe]2 [Aea]c/d/ [GAda]e[Ada][dd'] | [FBd]2 [GAce]2 [Ade]2 [DFAc]2 | %22
 [DGA]ded [EA]2 [Ad]2 | [EFAc]4 !arpeggio![EGd]4 | [EB]8 | [DA]8 | [DGAd][GAd]d a2 d a2 | %27
 !arpeggio![DAdg]3 f/e/ d3 A | [Gd][DA][Gd]e aA g2 | gf/e/ d2 a2 d'2- | !fermata![DAd']8 |] %31
V:3
 x8 | x8 | x8 | x8 | A2 d2 DEAc | x2 E2 x4 | x8 | x A x2 d'2 [da]2 | x A x2 d'2 [da]2 | %9
 x A x2 d'2 [Ada]2 | x A x2 [da]A[de][Gd] | x8 | x d e2 dAcd | x A x2 [Ad]2 A2 | [GB]A[GB]A B2 g2 | %15
 x8 | x8 || x8 | x8 | x2 [Ad][EA] x4 | x8 | x8 | x8 | x E [EA]2 x4 | x2 ^GE dE[GB]E | %25
 x2 A2 [EAce]4 | x8 | x8 | x8 | !arpeggio![DFAd]2 !arpeggio![DGA]6- | !fermata!G8 |] %31
V:4
 x8 | x8 | x8 | x8 | x8 | x8 | a2 d'6 |[K:treble] x8 | z4 z g/f/ ef | x8 | x8 | x8 | x8 | x8 | x8 | %15
 x8 | x8 || x8 | x8 | x8 | x8 | x8 | x8 | x8 | x8 | x8 | x8 | x8 | x8 | x8 | x8 |] %31

